assets/svg/sport.svg

<?xml version="1.0" ?>
<!-- Uploaded to: SVG Repo, www.svgrepo.com, Generator: SVG Repo Mixer Tools -->
<svg fill="#000000" width="800px" height="800px" viewBox="0 0 512 512" xmlns="http://www.w3.org/2000/svg">
<g id="Sport">
<path d="M256,46.5544c-115.98,0-210,94.0209-210,210,11.0614,278.5613,408.9813,278.4822,420-.0011C466,140.5753,371.98,46.5544,256,46.5544Zm13.1314,64.0816,43.3441-28.8626a184.32,184.32,0,0,1,92.236,67.287L390.73,198.9456,322.2637,220.89l-53.1323-39.0514ZM199.5266,81.7734l43.3548,28.8679v71.192L189.7405,220.89l-68.47-21.9487-13.98-49.8832A184.2945,184.2945,0,0,1,199.5266,81.7734Zm-91.7,282.996a182.38,182.38,0,0,1-35.564-108.4681l40.9409-32.3831L181.6186,245.85,202.03,309.3984,159.6816,366.89Zm205.2255,66.3535c-35.6088,12.1391-78.5,12.137-114.1089-.0011l-18.0682-48.7359,42.4084-57.5736h65.437l42.4,57.5757Zm91.1188-66.3524-51.8549,2.1213L309.974,309.3994l20.4138-63.5507,68.4107-21.9263,40.9387,32.381A182.3643,182.3643,0,0,1,404.1711,364.7705Z"/>
</g>
</svg>

<svg xmlns="http://www.w3.org/2000/svg" width="800" height="800" viewBox="0 0 512 512">
    <path
        d="M256 46.554c-115.98 0-210 94.021-210 210 11.061 278.562 408.981 278.483 420 0 0-115.979-94.02-210-210-210m13.131 64.082 43.345-28.863a184.32 184.32 0 0 1 92.236 67.287l-13.982 49.886-68.466 21.944-53.133-39.051Zm-69.604-28.863 43.354 28.868v71.192l-53.14 39.057-68.47-21.949-13.98-49.883a184.3 184.3 0 0 1 92.236-67.285m-91.7 282.996a182.38 182.38 0 0 1-35.564-108.468l40.94-32.383 68.416 21.932 20.411 63.548-42.348 57.492Zm205.225 66.354c-35.609 12.139-78.5 12.137-114.109-.001l-18.068-48.736 42.408-57.574h65.437l42.4 57.576Zm91.119-66.353-51.855 2.122-42.342-57.493 20.414-63.55 68.41-21.927 40.94 32.381a182.36 182.36 0 0 1-35.567 108.468Z" />
</svg>
